svgs/sharp-light/hand-point-up.svg

<svg xmlns="http://www.w3.org/2000/svg" viewBox="0 0 384 512"><!--! Font Awesome Pro 6.6.0 by @fontawesome - https://fontawesome.com License - https://fontawesome.com/license (Commercial License) Copyright 2024 Fonticons, Inc. --><path d="M48 0L32 0l0 16 0 224-16 0L0 240l0 16 0 96c0 88.4 71.6 160 160 160l64 0c88.4 0 160-71.6 160-160c0 0 0 0 0 0l0-16 0-64 0-16 0-48 0-16-16 0-64 0 0-16-16 0-64 0 0-16 0-16-16 0-64 0 0-128 0-16L128 0 48 0zm96 176l48 0 0 16 0 48-48 0 0-64zm48 96s0 0 0 0l0 48-80 0-16 0 0 32 16 0 80 0 16 0 16 0 48 0 16 0 16 0 48 0c0 70.7-57.3 128-128 128l-64 0C89.3 480 32 422.7 32 352l0-80 80 0s0 0 0 0l32 0s0 0 0 0l48 0zm32 0l0-16 0-16 0-32 48 0 0 112-48 0 0-48zM112 240l-48 0L64 32l48 0 0 112 0 16 0 80zm240 32l0 48-48 0 0-96 48 0 0 32 0 16z"/></svg>

<svg xmlns="http://www.w3.org/2000/svg" viewBox="0 0 384 512"><!--! Font Awesome Pro 6.4.2 by @fontawesome - https://fontawesome.com License - https://fontawesome.com/license (Commercial License) Copyright 2023 Fonticons, Inc. --><path d="M48 0H32V16 240H16 0v16 96c0 88.4 71.6 160 160 160h64c88.4 0 160-71.6 160-160v0V336 272 256 208 192H368 304V176H288 224V160 144H208 144V16 0H128 48zm96 176h48v16 48H144V176zm48 96l0 0 0 48H112 96v32h16 80 16 16 48 16 16 48c0 70.7-57.3 128-128 128H160C89.3 480 32 422.7 32 352V272h80v0h32v0h48zm32 0l0-16V240l0-32h48V320H224l0-48zM112 240H64V32h48V144v16 80zm240 32v48H304V224h48v32 16z"/></svg>
